altimeter.svg

<svg fill="currentColor" viewBox="0 0 24 24"><path d="M7 3v2h10V3zm2 4v2h6V7zm-7 .96v8.08L6.03 12zm20.03 0L18 12l4.03 4.04zM7 11v2h10v-2zm2 4v2h6v-2zm-2 4v2h10v-2z"/></svg>

<svg  viewBox="0 0 24 24" fill="currentColor"><path  d="M7,3V5H17V3H7M9,7V9H15V7H9M2,7.96V16.04L6.03,12L2,7.96M22.03,7.96L18,12L22.03,16.04V7.96M7,11V13H17V11H7M9,15V17H15V15H9M7,19V21H17V19H7Z"/></svg>
